Catalina-dark/actions/22/audio-ready.svg

<svg xmlns="http://www.w3.org/2000/svg" viewBox="0 0 22 22">
  <defs id="defs3051">
    <style type="text/css" id="current-color-scheme">
      .ColorScheme-Text {
        color:#f2f2f2
      }
      </style>
  </defs>
 <path 
     style="fill:currentColor;fill-opacity:1;stroke:none"      
	 class="ColorScheme-Text"
        d="M 11.033203 4.0625 C 10.835449 4.0625 10.664065 4.1349029 10.519531 4.2792969 L 6.7207031 8.078125 L 3.7304688 8.078125 C 3.5325747 8.078125 3.361331 8.1505279 3.2167969 8.2949219 C 3.0722628 8.439456 3 8.6108398 3 8.8085938 L 3 13.191406 C 3 13.38916 3.0722628 13.560684 3.2167969 13.705078 C 3.361471 13.849612 3.5327148 13.921875 3.7304688 13.921875 L 6.7207031 13.921875 L 10.519531 17.720703 C 10.664065 17.865097 10.835449 17.9375 11.033203 17.9375 C 11.231097 17.9375 11.402341 17.865097 11.546875 17.720703 C 11.691409 17.576309 11.763672 17.404785 11.763672 17.207031 L 11.763672 4.7929688 C 11.763672 4.5952148 11.691269 4.423831 11.546875 4.2792969 C 11.402201 4.1349029 11.231097 4.0625 11.033203 4.0625 z M 18.019531 8.28125 C 17.906868 8.28125 17.811229 8.3215315 17.732422 8.4003906 L 14.960938 11.175781 L 13.720703 9.9296875 C 13.641844 9.8508283 13.546205 9.8105469 13.433594 9.8105469 C 13.32093 9.8105469 13.22339 9.8508283 13.144531 9.9296875 L 12.570312 10.503906 C 12.491453 10.582765 12.453125 10.678352 12.453125 10.791016 C 12.453125 10.903627 12.491453 10.999318 12.570312 11.078125 L 14.099609 12.607422 L 14.673828 13.181641 C 14.752635 13.2605 14.848274 13.300781 14.960938 13.300781 C 15.073549 13.300781 15.169188 13.260448 15.248047 13.181641 L 15.824219 12.607422 L 18.880859 9.5488281 C 18.959667 9.4699689 19 9.3743821 19 9.2617188 C 19.000052 9.1491072 18.959667 9.0534686 18.880859 8.9746094 L 18.306641 8.4003906 C 18.227833 8.3215315 18.132143 8.28125 18.019531 8.28125 z "
     />
</svg>

<svg width="22" height="22" viewBox="3 4.062 16 13.88" xmlns="http://www.w3.org/2000/svg">
<defs>
<style id="current-color-scheme" type="text/css">.ColorScheme-Text {
        color:#f2f2f2
      }</style>
</defs>
<path class="ColorScheme-Text" d="m11.033 4.0625c-0.19775 0-0.36914 0.072403-0.51367 0.2168l-3.7988 3.7988h-2.9902c-0.19789 0-0.36914 0.072403-0.51367 0.2168-0.14453 0.14453-0.2168 0.31592-0.2168 0.51367v4.3828c0 0.19775 0.072263 0.36928 0.2168 0.51367 0.14467 0.14453 0.31592 0.2168 0.51367 0.2168h2.9902l3.7988 3.7988c0.14453 0.14439 0.31592 0.2168 0.51367 0.2168 0.19789 0 0.36914-0.072403 0.51367-0.2168s0.2168-0.31592 0.2168-0.51367v-12.414c0-0.19775-0.072403-0.36914-0.2168-0.51367-0.14467-0.14439-0.31578-0.2168-0.51367-0.2168zm6.9863 4.2188c-0.11266 0-0.2083 0.040282-0.28711 0.11914l-2.7715 2.7754-1.2402-1.2461c-0.078859-0.078859-0.1745-0.11914-0.28711-0.11914-0.11266 0-0.2102 0.040281-0.28906 0.11914l-0.57422 0.57422c-0.078859 0.078859-0.11719 0.17445-0.11719 0.28711 0 0.11261 0.038328 0.2083 0.11719 0.28711l2.1035 2.1035c0.078807 0.078859 0.17445 0.11914 0.28711 0.11914 0.11261 0 0.20825-0.040333 0.28711-0.11914l0.57617-0.57422 3.0566-3.0586c0.078808-0.078859 0.11914-0.17445 0.11914-0.28711 5.2e-5 -0.11261-0.040333-0.20825-0.11914-0.28711l-0.57422-0.57422c-0.078808-0.078859-0.1745-0.11914-0.28711-0.11914z" fill="currentColor"/>
</svg>
